communes/92.svg

<?xml version="1.0" encoding="UTF-8" standalone="no"?>
<!-- Created with Inkscape (http://www.inkscape.org/) -->
<svg
   xmlns:svg="http://www.w3.org/2000/svg"
   xmlns="http://www.w3.org/2000/svg"
   xmlns:xlink="http://www.w3.org/1999/xlink"
   version="1.0"
   width="238.17487"
   height="278.98483"
   id="svg2780">
  <defs
     id="defs2782" />
  <g
     transform="translate(-4.1544903,-785.68212)"
     id="layer1">
    <path
       d="M 5.1544902,786.68212 L 9.4485743,967.0443 C 12.51577,1095.8745 233.96807,1095.8745 237.03528,967.0443 L 241.32936,786.68212 L 5.1544902,786.68212 z"
       id="path3282"
       style="fill:#ffffff;fill-opacity:1;fill-rule:evenodd;stroke:#000000;stroke-width:1.99999988;stroke-linecap:butt;stroke-miterlimit:4;stroke-dashoffset:0;stroke-opacity:1" />
    <path
       d="M 205.14953,907.84384 C 207.17609,962.80146 170.07941,990.2974 163.24593,988.01929 C 157.22969,986.01363 153.20478,990.23047 149.80288,993.58664 C 145.634,997.69947 135.21311,990.40617 128.48776,984.35471 C 125.55921,981.71959 120.1706,981.15654 120.18753,985.96172 C 120.21506,993.87261 116.34891,997.02407 113.06289,994.46288 C 111.29278,993.08324 109.53478,989.75244 106.75691,992.70138 C 105.16702,991.11862 99.751961,989.55249 98.331718,991.56031 C 96.976095,993.47678 93.242811,993.49302 91.670722,991.31025 C 89.240824,987.93646 84.461978,984.16646 79.317658,988.01929 C 49.043002,963.86695 42.734862,941.98694 42.500631,904.30276 C -13.279169,1079.8412 258.36363,1084.5571 205.14953,907.84384 z"
       id="path2561"
       style="fill:#dd4229;fill-opacity:1;fill-rule:evenodd;stroke:#000000;stroke-width:0.99921268;stroke-linecap:butt;stroke-linejoin:round;stroke-miterlimit:4;stroke-dasharray:none;stroke-opacity:1" />
    <path
       d="M 152.02335,1007.422 C 155.71196,1005.1319 157.50783,999.37251 156.34274,993.3337"
       id="path2392"
       style="fill:none;fill-opacity:0.75;fill-rule:evenodd;stroke:#000000;stroke-width:0.99921268;stroke-linecap:round;stroke-linejoin:miter;stroke-miterlimit:4;stroke-dasharray:none;stroke-opacity:1" />
    <path
       d="M 137.34905,1003.654 C 137.27029,1005.559 139.42875,1010.7833 140.4502,1012.3826 C 142.01457,1009.8173 143.64356,1004.5563 144.196,999.72467 L 147.90726,1001.4448"
       id="path2394"
       style="fill:none;fill-opacity:0.75;fill-rule:evenodd;stroke:#000000;stroke-width:0.99921268;stroke-linecap:round;stroke-linejoin:round;stroke-miterlimit:4;stroke-dasharray:none;stroke-opacity:1" />
    <path
       d="M 128.08748,1000.2055 C 113.44101,1005.3223 124.10757,994.28006 122.76122,990.97426"
       id="path2396"
       style="fill:none;fill-opacity:0.75;fill-rule:evenodd;stroke:#000000;stroke-width:1.00000012px;stroke-linecap:round;stroke-linejoin:miter;stroke-opacity:1" />
    <path
       d="M 106.39359,992.87124 C 106.39359,995.19433 106.00882,998.80388 105.66696,1003.5159 C 103.00598,1001.7112 101.33587,995.52129 101.29666,991.14784"
       id="path2398"
       style="fill:none;fill-opacity:0.75;fill-rule:evenodd;stroke:#000000;stroke-width:1.00000012px;stroke-linecap:butt;stroke-linejoin:miter;stroke-opacity:1" />
    <path
       d="M 103.60739,1004.4412 C 105.3035,1004.4549 107.12212,1003.9565 109.04658,1003.0164"
       id="path2400"
       style="opacity:1;color:#000000;fill:none;fill-opacity:0.75;fill-rule:evenodd;stroke:#000000;stroke-width:1.00000012px;stroke-linecap:round;stroke-linejoin:miter;marker:none;marker-start:none;marker-mid:none;marker-end:none;stroke-miterlimit:4;stroke-dasharray:none;stroke-dashoffset:0;stroke-opacity:1;visibility:visible;display:inline;overflow:visible;enable-background:accumulate" />
    <path
       d="M 137.43828,1004.9048 C 137.235,1003.8325 138.71442,1003.3174 140.20479,1003.0888 C 142.28585,1002.7697 144.30245,1001.7209 143.42796,1004.1563 C 142.88104,1005.6793 142.4892,1005.6531 140.57701,1005.7077 C 139.07122,1005.7507 137.62545,1005.8921 137.43828,1004.9048 z"
       id="path2402"
       style="color:#000000;fill:#000000;fill-opacity:1;fill-rule:evenodd;stroke:none;stroke-width:0.98595467pt;stroke-linecap:butt;stroke-linejoin:round;marker:none;marker-start:none;marker-mid:none;marker-end:none;stroke-miterlimit:4;stroke-dashoffset:0;stroke-opacity:1;visibility:visible;display:inline;overflow:visible;enable-background:accumulate" />
    <path
       d="M 150.73328,997.68905 C 147.42907,998.6315 149.01282,1005.9507 140.4502,1012.3826"
       id="path3870"
       style="opacity:1;color:#000000;fill:none;fill-opacity:0.75;fill-rule:evenodd;stroke:#000000;stroke-width:0.99921268;stroke-linecap:round;stroke-linejoin:miter;marker:none;marker-start:none;marker-mid:none;marker-end:none;stroke-miterlimit:4;stroke-dasharray:none;stroke-dashoffset:0;stroke-opacity:1;visibility:visible;display:inline;overflow:visible;enable-background:accumulate" />
    <path
       d="M 120.61184,169.07225 L 112.25053,142.60719 L 85.150468,148.59862 L 103.88923,128.12498 L 85.150466,107.65135 L 112.25053,113.64278 L 120.61184,87.177719 L 128.97314,113.64278 L 156.07321,107.65135 L 137.33445,128.12498 L 156.07321,148.59862 L 128.97314,142.60719 L 120.61184,169.07225 z"
       transform="matrix(1.0431636,0,0,1.0430635,-2.5759539,786.92681)"
       id="path5822"
       style="fill:#dd4229;fill-opacity:1;fill-rule:evenodd;stroke:#000000;stroke-width:0.95791358;stroke-linecap:butt;stroke-linejoin:miter;stroke-miterlimit:4;stroke-dasharray:none;stroke-opacity:1" />
    <use
       transform="translate(-60.29344,-76.577682)"
       id="use5824"
       x="0"
       y="0"
       width="248.03149"
       height="248.03149"
       xlink:href="#path5822" />
    <use
       transform="translate(60.293437,-76.577682)"
       id="use5826"
       x="0"
       y="0"
       width="248.03149"
       height="248.03149"
       xlink:href="#path5822" />
  </g>
</svg>

<?xml version="1.0" encoding="UTF-8"?>
<svg version="1.0" viewBox="0 0 238.17 278.98" xmlns="http://www.w3.org/2000/svg" xmlns:xlink="http://www.w3.org/1999/xlink">
<g transform="translate(-4.1545 -785.68)">
<path d="m5.1545 786.68 4.2941 180.36c3.0672 128.83 224.52 128.83 227.59 0l4.2941-180.36h-236.17z" fill="#fff" fill-rule="evenodd" stroke="#000" stroke-width="2"/>
<path d="m205.15 907.84c2.0266 54.958-35.07 82.454-41.904 80.175-6.0162-2.0057-10.041 2.2112-13.443 5.5674-4.1689 4.1128-14.59-3.1805-21.315-9.2319-2.9286-2.6351-8.3172-3.1982-8.3002 1.607 0.02753 7.9109-3.8386 11.062-7.1246 8.5012-1.7701-1.3796-3.5281-4.7104-6.306-1.7615-1.5899-1.5828-7.0049-3.1489-8.4252-1.1411-1.3556 1.9165-5.0889 1.9327-6.661-0.25006-2.4299-3.3738-7.2087-7.1438-12.353-3.291-30.275-24.152-36.583-46.032-36.817-83.717-55.78 175.54 215.86 180.25 162.65 3.5411z" fill="#dd4229" fill-rule="evenodd" stroke="#000" stroke-linejoin="round" stroke-width=".99921"/>
<path d="m152.02 1007.4c3.6886-2.2901 5.4845-8.0495 4.3194-14.088" fill="none" stroke="#000" stroke-linecap="round" stroke-width=".99921"/>
<path d="m137.35 1003.7c-0.07876 1.905 2.0797 7.1293 3.1012 8.7286 1.5644-2.5653 3.1934-7.8263 3.7458-12.658l3.7113 1.7201" fill="none" stroke="#000" stroke-linecap="round" stroke-linejoin="round" stroke-width=".99921"/>
<path d="m128.09 1000.2c-14.646 5.1168-3.9799-5.9254-5.3263-9.2312" fill="none" stroke="#000" stroke-linecap="round" stroke-width="1px"/>
<path d="m106.39 992.87c0 2.3231-0.38477 5.9326-0.72663 10.645-2.661-1.8047-4.3311-7.9946-4.3703-12.368" fill="none" stroke="#000" stroke-width="1px"/>
<path d="m103.61 1004.4c1.6961 0.0137 3.5147-0.4847 5.4392-1.4248" color="#000000" fill="none" stroke="#000" stroke-linecap="round" stroke-width="1px"/>
<path d="m137.44 1004.9c-0.20328-1.0723 1.2761-1.5874 2.7665-1.816 2.0811-0.3191 4.0977-1.3679 3.2232 1.0675-0.54692 1.523-0.93876 1.4968-2.851 1.5514-1.5058 0.043-2.9516 0.1844-3.1387-0.8029z" color="#000000" fill-rule="evenodd"/>
<path d="m150.73 997.69c-3.3042 0.94245-1.7205 8.2616-10.283 14.694" color="#000000" fill="none" stroke="#000" stroke-linecap="round" stroke-width=".99921"/>
<path id="a" transform="matrix(1.0432 0 0 1.0431 -2.576 786.93)" d="m120.61 169.07-8.3613-26.465-27.1 5.9914 18.739-20.474-18.739-20.474 27.1 5.9914 8.3613-26.465 8.3613 26.465 27.1-5.9914-18.739 20.474 18.739 20.474-27.1-5.9914-8.3613 26.465z" fill="#dd4229" fill-rule="evenodd" stroke="#000" stroke-width=".95791"/>
<use transform="translate(-60.293 -76.578)" width="248.03149" height="248.03149" xlink:href="#a"/>
<use transform="translate(60.293 -76.578)" width="248.03149" height="248.03149" xlink:href="#a"/>
</g>
</svg>
